icons/svg/shopping/trade.svg

<?xml version="1.0" encoding="UTF-8" standalone="no"?>
<!-- Created with Inkscape (http://www.inkscape.org/) -->

<svg
   xmlns:dc="http://purl.org/dc/elements/1.1/"
   xmlns:cc="http://creativecommons.org/ns#"
   xmlns:rdf="http://www.w3.org/1999/02/22-rdf-syntax-ns#"
   xmlns:svg="http://www.w3.org/2000/svg"
   xmlns="http://www.w3.org/2000/svg"
   xmlns:sodipodi="http://sodipodi.sourceforge.net/DTD/sodipodi-0.dtd"
   xmlns:inkscape="http://www.inkscape.org/namespaces/inkscape"
   version="1.0"
   width="580"
   height="580"
   id="svg2"
   sodipodi:version="0.32"
   inkscape:version="0.91 r"
   sodipodi:docname="trade.svg"
   inkscape:output_extension="org.inkscape.output.svg.inkscape">
  <metadata
     id="metadata10">
    <rdf:RDF>
      <cc:Work
         rdf:about="">
        <dc:format>image/svg+xml</dc:format>
        <dc:type
           rdf:resource="http://purl.org/dc/dcmitype/StillImage" />
        <cc:license
           rdf:resource="http://web.resource.org/cc/PublicDomain" />
        <dc:language>en</dc:language>
        <dc:title></dc:title>
      </cc:Work>
    </rdf:RDF>
  </metadata>
  <sodipodi:namedview
     inkscape:window-height="1004"
     inkscape:window-width="1920"
     inkscape:pageshadow="2"
     inkscape:pageopacity="0.0"
     guidetolerance="10.0"
     gridtolerance="10.0"
     objecttolerance="10.0"
     borderopacity="1.0"
     bordercolor="#666666"
     pagecolor="#ffffff"
     id="base"
     showgrid="false"
     inkscape:zoom="0.5"
     inkscape:cx="259.54682"
     inkscape:cy="420.25529"
     inkscape:window-x="1680"
     inkscape:window-y="0"
     inkscape:current-layer="svg2"
     inkscape:window-maximized="1"
     inkscape:snap-bbox="true" />
  <defs
     id="defs4">
    <inkscape:perspective
       sodipodi:type="inkscape:persp3d"
       inkscape:vp_x="0 : 290 : 1"
       inkscape:vp_y="0 : 1000 : 0"
       inkscape:vp_z="580 : 290 : 1"
       inkscape:persp3d-origin="290 : 193.33333 : 1"
       id="perspective12" />
    <style
       type="text/css"
       id="style6">
   
    .fil0 {fill:#EF7900}
   
  </style>
    <inkscape:perspective
       id="perspective6807"
       inkscape:persp3d-origin="29.116032 : 19.410688 : 1"
       inkscape:vp_z="58.232063 : 29.116032 : 1"
       inkscape:vp_y="0 : 1000 : 0"
       inkscape:vp_x="0 : 29.116032 : 1"
       sodipodi:type="inkscape:persp3d" />
    <inkscape:perspective
       id="perspective6954"
       inkscape:persp3d-origin="290 : 193.33333 : 1"
       inkscape:vp_z="580 : 290 : 1"
       inkscape:vp_y="0 : 1000 : 0"
       inkscape:vp_x="0 : 290 : 1"
       sodipodi:type="inkscape:persp3d" />
    <inkscape:perspective
       id="perspective2541"
       inkscape:persp3d-origin="240 : 160 : 1"
       inkscape:vp_z="480 : 240 : 1"
       inkscape:vp_y="0 : 1000 : 0"
       inkscape:vp_x="0 : 240 : 1"
       sodipodi:type="inkscape:persp3d" />
    <inkscape:perspective
       id="perspective2750"
       inkscape:persp3d-origin="215 : 143.33333 : 1"
       inkscape:vp_z="430 : 215 : 1"
       inkscape:vp_y="0 : 1000 : 0"
       inkscape:vp_x="0 : 215 : 1"
       sodipodi:type="inkscape:persp3d" />
    <inkscape:perspective
       id="perspective3730"
       inkscape:persp3d-origin="88.929146 : 101.19778 : 1"
       inkscape:vp_z="177.85829 : 151.79668 : 1"
       inkscape:vp_y="0 : 1000 : 0"
       inkscape:vp_x="0 : 151.79668 : 1"
       sodipodi:type="inkscape:persp3d" />
  </defs>
  <g
     id="g1327">
    <path
       d="M 66.275,1.768 C 24.94,1.768 1.704,23.139 1.704,66.804 L 1.704,516.927 C 1.704,557.771 22.598,579.156 63.896,579.156 L 515.92,579.156 C 557.227,579.156 578.149,558.84 578.149,516.927 L 578.149,66.804 C 578.149,24.203 557.227,1.768 514.627,1.768 C 514.624,1.768 66.133,1.625 66.275,1.768 z"
       style="fill:#111111;stroke:#eeeeee;stroke-width:3.40799999"
       id="path1329" />
  </g>
  <g
     style="font-size:36.50536728px;font-style:normal;font-variant:normal;font-weight:bold;font-stretch:normal;text-align:start;line-height:125%;letter-spacing:0px;word-spacing:0px;writing-mode:lr-tb;text-anchor:start;fill:#000000;fill-opacity:1;stroke:none;font-family:Sans;-inkscape-font-specification:Sans Bold"
     id="text3857" />
  <g
     style="font-size:25.55375862px;font-style:normal;font-variant:normal;font-weight:bold;font-stretch:normal;text-align:start;line-height:125%;letter-spacing:0px;word-spacing:0px;writing-mode:lr-tb;text-anchor:start;fill:#000000;fill-opacity:1;stroke:none;font-family:Sans;-inkscape-font-specification:Sans Bold"
     id="text3896" />
  <g
     id="g8144"
     transform="matrix(0.21235796,0,0,0.21235796,323.3892,78.646311)" />
  <g
     transform="matrix(0.21235796,0,0,0.21235796,389.3892,78.646311)"
     id="g8150" />
  <g
     id="g4354"
     transform="matrix(0.31972367,0,0,0.31972367,268.65635,192.82199)" />
  <path
     inkscape:connector-curvature="0"
     d="m 64.598828,329.19898 0,196.001 c 0,5.41944 4.390422,9.80006 9.800056,9.80006 l 205.801056,0 0,-205.80107 -215.601111,0 z m 156.800782,49.00024 -78.40037,0 c -5.40964,0 -9.80006,-4.38062 -9.80006,-9.80004 0,-5.41943 4.39042,-9.80006 9.80006,-9.80006 l 78.40037,0 c 5.4097,0 9.80011,4.38063 9.80011,9.80006 0,5.41942 -4.39041,9.80004 -9.80011,9.80004 z"
     id="path3"
     style="fill:#ffffff;fill-opacity:1" />
  <path
     inkscape:connector-curvature="0"
     d="m 299.80006,329.19898 0,205.80106 205.8011,0 c 5.41938,0 9.8,-4.38062 9.8,-9.80006 l 0,-196.00101 -215.6011,0 z m 137.20066,49.00024 -78.40033,0 c -5.41949,0 -9.80011,-4.38062 -9.80011,-9.80004 0,-5.41943 4.38062,-9.80006 9.80011,-9.80006 l 78.40033,0 c 5.41949,0 9.80011,4.38063 9.80011,9.80006 0,5.41942 -4.38062,9.80004 -9.80011,9.80004 z"
     id="path5"
     style="fill:#ffffff;fill-opacity:1" />
  <path
     inkscape:connector-curvature="0"
     d="m 525.20127,214.53839 c -1.38187,0 -2.75387,-0.29401 -4.04749,-0.87221 L 290.00006,108.67824 58.856007,213.65638 c -3.028222,1.372 -6.556244,1.1172 -9.359055,-0.686 -2.802811,-1.79341 -4.498222,-4.90002 -4.498222,-8.23204 l 0,-44.10023 c 0,-3.86123 2.263811,-7.35004 5.782033,-8.93765 L 285.98194,45.859905 c 2.55776,-1.1466 5.48812,-1.1466 8.03612,0 L 529.21927,151.70046 c 3.528,1.57781 5.782,5.07642 5.782,8.93765 l 0,44.10023 c 0,3.33202 -1.69538,6.43863 -4.48838,8.24184 -1.60724,1.029 -3.45938,1.55821 -5.31162,1.55821 z"
     id="path7"
     style="fill:#ffffff;fill-opacity:1" />
  <path
     inkscape:connector-curvature="0"
     d="m 218.67521,162.59812 2.7244,0 c 5.4097,0 9.80011,4.39042 9.80011,9.80005 0,5.40961 -4.39041,9.80004 -9.80011,9.80004 l -45.88381,0 -108.574761,49.31387 c -0.7644,0.343 -1.568,0.4998 -2.342211,0.784 l 0,77.30279 215.601112,0 0,-174.94071 -61.52473,27.93995 z"
     id="path9"
     style="fill:#ffffff;fill-opacity:1" />
  <path
     inkscape:connector-curvature="0"
     d="m 513.04916,231.50228 -108.56493,-49.30406 -45.88384,0 c -5.41949,0 -9.80011,-4.39042 -9.80011,-9.80005 0,-5.40963 4.38062,-9.80005 9.80011,-9.80005 l 2.71462,0 -61.51495,-27.93995 0,174.94071 215.6011,0 0,-77.3126 c -0.784,-0.2744 -1.58762,-0.441 -2.352,-0.784 z"
     id="path11"
     style="fill:#ffffff;fill-opacity:1" />
</svg>

<svg width="580" height="580" viewBox="0 0 580 580" fill="none" xmlns="http://www.w3.org/2000/svg">
<g clip-path="url(#clip0)">
<path d="M66.2751 1.76863C24.9401 1.76863 1.7041 23.1396 1.7041 66.8046V516.928C1.7041 557.772 22.5981 579.157 63.8961 579.157H515.92C557.227 579.157 578.149 558.841 578.149 516.928V66.8046C578.149 24.2036 557.227 1.76863 514.627 1.76863C514.624 1.76863 66.1331 1.62563 66.2751 1.76863Z" fill="#111111" stroke="#EEEEEE" stroke-width="3.408"/>
<path d="M64.5989 329.199V525.2C64.5989 530.62 68.9893 535 74.3989 535H280.2V329.199H64.5989V329.199ZM221.4 378.199H142.999C137.59 378.199 133.199 373.819 133.199 368.399C133.199 362.98 137.59 358.599 142.999 358.599H221.4C226.809 358.599 231.2 362.98 231.2 368.399C231.2 373.819 226.809 378.199 221.4 378.199Z" fill="white"/>
<path d="M299.8 329.199V535H505.601C511.021 535 515.401 530.62 515.401 525.2V329.199H299.8V329.199ZM437.001 378.199H358.6C353.181 378.199 348.8 373.819 348.8 368.399C348.8 362.98 353.181 358.599 358.6 358.599H437.001C442.42 358.599 446.801 362.98 446.801 368.399C446.801 373.819 442.42 378.199 437.001 378.199Z" fill="white"/>
<path d="M525.201 214.538C523.819 214.538 522.447 214.244 521.154 213.666L290 108.678L58.8561 213.656C55.8278 215.028 52.2998 214.774 49.497 212.97C46.6942 211.177 44.9988 208.07 44.9988 204.738V160.638C44.9988 156.777 47.2626 153.288 50.7808 151.701L285.982 45.86C288.54 44.7133 291.47 44.7133 294.018 45.86L529.219 151.701C532.747 153.278 535.001 156.777 535.001 160.638V204.738C535.001 208.07 533.306 211.177 530.513 212.98C528.906 214.009 527.054 214.538 525.201 214.538V214.538Z" fill="white"/>
<path d="M218.675 162.598H221.4C226.809 162.598 231.2 166.989 231.2 172.398C231.2 177.808 226.809 182.198 221.4 182.198H175.516L66.9411 231.512C66.1767 231.855 65.3731 232.012 64.5989 232.296V309.599H280.2V134.658L218.675 162.598V162.598Z" fill="white"/>
<path d="M513.049 231.502L404.484 182.198H358.6C353.181 182.198 348.8 177.808 348.8 172.398C348.8 166.989 353.181 162.598 358.6 162.598H361.315L299.8 134.658V309.599H515.401V232.286C514.617 232.012 513.814 231.845 513.049 231.502Z" fill="white"/>
</g>
<defs>
<clipPath id="clip0">
<path d="M0 0H580V580H0V0Z" fill="white"/>
</clipPath>
</defs>
</svg>
